X: 70
T:Road to Lisdoonvarna, The
M:6/8
L:1/8
R:jig
Z:id:hn-reel-195
K:EDor
D|\
E2B B2A|B2c d3|F2A ABA|D2E FED|\
E2B B2A|B2c d3|cdc B2A|B2E E2::|
e|\
e2f gfe|d2B Bcd|c2A ABc|d2B B3|\
e2f gfe|d2B Bcd|cdc B2A|B2E E2:|

